X:1
T:Title
%%score { ( 1 3 ) | ( 2 4 ) }
L:1/8
M:9/8
K:Bb
V:1 treble nm="Grand Piano"
V:3 treble 
V:2 bass 
V:4 bass 
V:1
 z3 z3[Q:1/4=100] [DF][_D=E][DG] | [DF]3 [B,D]3 [DB][CA][Ec] | [DB]3 [DF]3 GEF | %3
 G3 G3 [GB][FA][EG] | [DF]6 [DF][_D=E][DG] | [DF]3 D3 BAc | B3 F3 GAB | F3 B3 AGA |[M:3/4] [DB]6 | %9
[M:3/8] AB=B |[M:9/8] c3 c3 [Fc][Fd][Fe] |[M:3/4] [Fd]3 [DB]3 |[M:3/8] d_d=d | %13
[M:9/8] [Bf]-[B,B-f-][DB-f-] [DBf]2 d dc[=EB] | c6 z3 | [Fd]6 z3 | [Ge]3 [EG]3 z3 | %17
 [B,DF][B,FB][Gc] [Fd]3 [=Ec][EG][_EA][Q:1/4=97][Q:1/4=94][Q:1/4=91][Q:1/4=88][Q:1/4=84][Q:1/4=81][Q:1/4=78] | %18
[M:3/4] [DB]6 |] %19
V:2
 z3 z3 [B,,B,][B,,G,][B,,=E,] | [B,,F,]3 [B,,F,]3 [B,,F,][B,,F,][B,,F,] | %2
 [B,,F,]3 [B,,B,]3 [E,B,E][E,G,][E,A,E] | [E,B,E]3 [E,B,E]3 [E,E][E,B,][E,B,] | %4
 [B,,B,]6 [B,,F,][B,,G,][B,,=E,] | [B,,F,]3 [B,,F,B,]3 [F,D][F,CE][^F,A,E] | %6
 [G,B,D]3 [D,B,]3 [E,B,E][E,A,C][=E,G,_D] | [F,B,D]3 [F,D]3 [F,CE][F,A,E][F,CE] |[M:3/4] [B,,B,]6 | %9
[M:3/8] [F,C][F,B,_D][F,_A,=D] |[M:9/8] [F,A,E]3 [F,A,E]3 [E,A,][D,A,][C,A,] | %11
[M:3/4] [B,,B,]3 [B,,F,]3 |[M:3/8][K:treble] F=EF | %13
[M:9/8][K:bass] B,,D,F, B,2[K:treble] [A,B,F] [G,B,=E][K:bass][F,B,E][C,C] | %14
 [A,E]CB, A,2 A, D_D=D | [B,,B,]D,F, B,2[K:treble] D DFA | [E,B,]E,E, E,2 E, E,E,E, | %17
 B,,D,[E,B,] [F,B,]3 [G,B,][C,B,][F,C] |[M:3/4] [B,,B,]6 |] %19
V:3
 x9 | x9 | x9 | x9 | x9 | x9 | x9 | x9 |[M:3/4] x6 |[M:3/8] x3 |[M:9/8] x9 |[M:3/4] x6 | %12
[M:3/8] x3 |[M:9/8] .D3 z3 z3 | z AG F2 E F=EF | z B,B, z2 B Bc_d | %16
 z A,B, B,2 B, [EAc][EGB][B,EG] | x9 |[M:3/4] x6 |] %19
V:4
 x9 | x9 | x9 | x9 | x9 | x9 | x9 | x9 |[M:3/4] x6 |[M:3/8] x3 |[M:9/8] x9 |[M:3/4] x6 | %12
[M:3/8][K:treble] x3 |[M:9/8][K:bass] x5[K:treble] x2[K:bass] x2 | F,6 z3 | x5[K:treble] x4 | x9 | %17
 x9 |[M:3/4] x6 |] %19

